Numix/32/mimetypes/application-mathematica.svg

<?xml version="1.0" encoding="UTF-8" standalone="no"?>
<svg
   xmlns:dc="http://purl.org/dc/elements/1.1/"
   xmlns:cc="http://creativecommons.org/ns#"
   xmlns:rdf="http://www.w3.org/1999/02/22-rdf-syntax-ns#"
   xmlns:svg="http://www.w3.org/2000/svg"
   xmlns="http://www.w3.org/2000/svg"
   xmlns:sodipodi="http://sodipodi.sourceforge.net/DTD/sodipodi-0.dtd"
   xmlns:inkscape="http://www.inkscape.org/namespaces/inkscape"
   width="32"
   viewBox="0 0 32 32"
   height="32"
   id="svg2"
   version="1.1"
   inkscape:version="0.91 r"
   sodipodi:docname="application-mathematica.svg"
   inkscape:export-filename="/home/andreas/application-mathematica.png"
   inkscape:export-xdpi="500"
   inkscape:export-ydpi="500">
  <metadata
     id="metadata16">
    <rdf:RDF>
      <cc:Work
         rdf:about="">
        <dc:format>image/svg+xml</dc:format>
        <dc:type
           rdf:resource="http://purl.org/dc/dcmitype/StillImage" />
        <dc:title />
      </cc:Work>
    </rdf:RDF>
  </metadata>
  <sodipodi:namedview
     pagecolor="#ffffff"
     bordercolor="#666666"
     borderopacity="1"
     objecttolerance="10"
     gridtolerance="10"
     guidetolerance="10"
     inkscape:pageopacity="0"
     inkscape:pageshadow="2"
     inkscape:window-width="1920"
     inkscape:window-height="1056"
     id="namedview14"
     showgrid="false"
     inkscape:zoom="19.666666"
     inkscape:cx="-2.7792492"
     inkscape:cy="11.675056"
     inkscape:window-x="0"
     inkscape:window-y="24"
     inkscape:window-maximized="1"
     inkscape:current-layer="svg2" />
  <defs
     id="defs4">
    <clipPath
       id="clipPath-829539691">
      <g
         transform="translate(0,-1004.3622)"
         id="g17-6">
        <path
           inkscape:connector-curvature="0"
           d="m -24,13 c 0,1.105 -0.672,2 -1.5,2 -0.828,0 -1.5,-0.895 -1.5,-2 0,-1.105 0.672,-2 1.5,-2 0.828,0 1.5,0.895 1.5,2 z"
           transform="matrix(15.333333,0,0,11.5,414.99999,878.8622)"
           style="fill:#1890d0"
           id="path19-2" />
      </g>
    </clipPath>
  </defs>
  <path
     style="fill:#ecccd0;fill-opacity:1"
     d="M 5.3333333,0 C 4.647619,0 4,0.675776 4,1.391304 L 4,30.608696 C 4,31.284472 4.6857143,32 5.3333333,32 L 26.666667,32 C 27.314286,32 28,31.284472 28,30.608696 L 28,9.043478 19.333333,0 Z"
     id="path6"
     inkscape:connector-curvature="0" />
  <path
     style="fill-opacity:0.19599998"
     d="m 19.333333,7.652174 0.04167,0.04348 0.104167,-0.04348 -0.145834,0 z M 20.666667,9.043478 28,16.695652 l 0,-7.652174 -7.333333,0 z"
     id="path8"
     inkscape:connector-curvature="0" />
  <path
     style="fill:#ffffff;fill-opacity:0.39200003"
     d="M 19.333333,0 28,9.043478 l -7.333333,0 c -0.64762,0 -1.333334,-0.715527 -1.333334,-1.391304 l 0,-7.652174 z"
     id="path10"
     inkscape:connector-curvature="0" />
  <g
     transform="matrix(0.61538462,0,0,0.61533728,1.2307691,5.234982)"
     id="g45">
    <g
       id="g47"
       clip-path="url(#clipPath-829539691)">
      <!-- color: #f2dbde -->
      <g
         id="g49">
        <path
           inkscape:connector-curvature="0"
           d="m 24.844,10.996 c -2.43,7.797 -3.57,5.668 -8.77,1.945 3.09,7.727 2.609,6.449 -3.5,5.996 5.285,3.996 4.344,5.355 -1.574,8.324 6.094,0.043 8.219,-0.418 5.508,5.305 5.551,-2.824 4.898,-2.852 6.566,4.43 2.699,-7.316 2.602,-6.566 8.262,-3.055 -2.156,-5.926 -2.262,-6.086 4.875,-4.582 -6.05,-5.105 -4.762,-5.469 0.789,-9.01 -7.855,0.285 -6.914,-0.273 -4.684,-6.605 -6.426,4.941 -5.93,3.363 -7.473,-2.75 m 0,0"
           style="fill:#ec4c45;fill-opacity:1;fill-rule:nonzero;stroke:none"
           id="path51" />
        <path
           inkscape:connector-curvature="0"
           d="m 17.445,17.996 c 2.727,5.324 0.902,6.469 -3.449,9.34 6.285,-0.059 7.109,0.363 7.887,6.66 2.664,-5.305 3.465,-6.68 9.113,-5.168 -3.582,-3.816 -4.379,-5.379 -2.613,-10.371 -4.438,2.875 -6.438,2.102 -10.938,-0.461 m 0,0"
           style="fill:#ff6f7f;fill-opacity:1;fill-rule:nonzero;stroke:none"
           id="path53" />
        <path
           inkscape:connector-curvature="0"
           d="m 23.605,19.996 c 1.594,2.543 1.672,2.574 4.398,3.586 -2.727,1.18 -2.289,1.16 -2.098,4.219 -2.215,-1.844 -2.922,-1.563 -5.344,0.195 1.168,-3.137 0.969,-3.297 -1.559,-5.242 3.03,-0.098 3.445,-0.055 4.602,-2.758 m 0,0"
           style="fill:#ffb2cd;fill-opacity:1;fill-rule:nonzero;stroke:none"
           id="path55" />
      </g>
    </g>
  </g>
</svg>

<svg xmlns="http://www.w3.org/2000/svg" viewBox="0 0 32 32">
 <defs>
  
 </defs>
 <path d="m 5.333 0 c -0.686 0 -1.333 0.676 -1.333 1.391 l 0 29.22 c 0 0.676 0.686 1.391 1.333 1.391 l 21.333 0 c 0.648 0 1.333 -0.716 1.333 -1.391 l 0 -21.565 -8.667 -9.04" style="fill:#ecccd0;fill-opacity:1"/>
 <path d="m 19.333 7.652 0.042 0.043 0.104 -0.043 -0.146 0 z m 1.333 1.391 7.333 7.652 l 0 -7.652 -7.333 0 z" style="fill-opacity:0.196"/>
 <path d="m 19.333 0 8.667 9.04 l -7.333 0 c -0.648 0 -1.333 -0.716 -1.333 -1.391 l 0 -7.652 z" style="fill:#fff;fill-opacity:0.392"/>
 <g transform="matrix(0.61538462,0,0,0.61533728,1.2307691,5.234982)">
  <g style="clip-path:url(#clipPath-829539691)">
   <!-- color: #f2dbde -->
   <g>
    <path d="m 24.844 10.996 c -2.43 7.797 -3.57 5.668 -8.77 1.945 3.09 7.727 2.609 6.449 -3.5 5.996 5.285 3.996 4.344 5.355 -1.574 8.324 6.094 0.043 8.219 -0.418 5.508 5.305 5.551 -2.824 4.898 -2.852 6.566 4.43 2.699 -7.316 2.602 -6.566 8.262 -3.055 -2.156 -5.926 -2.262 -6.086 4.875 -4.582 -6.05 -5.105 -4.762 -5.469 0.789 -9.01 -7.855 0.285 -6.914 -0.273 -4.684 -6.605 -6.426 4.941 -5.93 3.363 -7.473 -2.75 m 0 0" style="fill:#ec4c45;fill-opacity:1;stroke:none;fill-rule:nonzero"/>
    <path d="m 17.445 17.996 c 2.727 5.324 0.902 6.469 -3.449 9.34 6.285 -0.059 7.109 0.363 7.887 6.66 2.664 -5.305 3.465 -6.68 9.113 -5.168 -3.582 -3.816 -4.379 -5.379 -2.613 -10.371 -4.438 2.875 -6.438 2.102 -10.938 -0.461 m 0 0" style="fill:#ff6f7f;fill-opacity:1;stroke:none;fill-rule:nonzero"/>
    <path d="m 23.605 19.996 c 1.594 2.543 1.672 2.574 4.398 3.586 -2.727 1.18 -2.289 1.16 -2.098 4.219 -2.215 -1.844 -2.922 -1.563 -5.344 0.195 1.168 -3.137 0.969 -3.297 -1.559 -5.242 3.03 -0.098 3.445 -0.055 4.602 -2.758 m 0 0" style="fill:#ffb2cd;fill-opacity:1;stroke:none;fill-rule:nonzero"/>
   </g>
  </g>
 </g>
</svg>
